X: 1
T: Skepparschottis
T: the Skipper Schottische
C: Thore H\"ardelin
O: H\"alsingland
R: shottish
Z: 2021 John Chambers <jc:trillian.mit.edu>
S: http://www.folksweden.com/files/Vals_efter_Joensagubben.pdf
M: 2/4
L: 1/16
K: D
|:\
"D"D2FA d2BA | d2BA d2d2 | D2FA d2BA | d2BA "A7"c2c2 |\
   A2ce g2fe | g2fe a2a2 | abaf g2ec | "D"e2dc d4 :|
|:\
"D"abaf dfA | abaf dfA2 | f2ed f2ed | "A7"feed e4 |\
   gage ceA | gage ceA2 | g2fe a2fe | "D"e2dc d4 :|
